X:497
T:
R:vals
S:Efter skomakaren Pucksson, Klintehamn.
O:Gotland, Klintehamn
M:3/4
L:1/8
K:A
E2|E2 A2 c2|edcd B2|E2 G2 B2|dcBc A2|E2 AB A2|F2 Bc B2|E2 F2 G2|A4::
(3efg|(ae)(ce)(ae)|(ge)(Be)(ge)|ae(ce)(Ae)|(Be)(de)(fg)|
(ae)(ce)(ae)|(ge)(Be)(ge)|(af)(dc)(dB)|A4:|

